X:3845
T:Danza de La Panadera
R:Danza
C:Tradicional
S:Música Tradicional Asturiana, (C) Tello & Tito. Asturies, 2001.
S:http://pagina.de/MusTradAst <telloytito@asturies.org>
N:Versión 1
O:Teberga
A:Asturies
Z:DyC en Teberga
M:3/8
L:1/8
Q:3/8=50
K:F
|: c2 c|cdc|BAB|BAB|c3|c2 c|cdc|BAc|BAG|
[1 F3|A2 c|BAG|F3|A2 B|cdc|BAc|BAG|F3 :|
[2 
M:2/4
Q:1/4=120
|F2 z F|GG GB|A3 G|FF FE|
|F2 z F|GG GB|A2 AG|FF FE|F2 z2|


